X: 40214
T: Tinker's Stick, The
R: reel
M: 4/4
K: Gmajor
c2BG AGEG|DGBG AGEG|BcAB G2Bc|dBAc BGG2:|
g2gf g2dg|egdg egde|g2gf g2~d2|eaag eaa2|
dggf g2dg|egdg egde|g2ge a2ag|b2ba gfed||

